!!!OTL: Guazi hung
!!!ARE: Asia, China,ÿHunan, Chaling
!! I, 559
!!!SCT: C1474
!!!YEM: Copyright 1995, estate of Helmut Schaffrath.
**kern
*ICvox
*Ivox
!! Mixed meters:  2/4; 3/4
*M3/4
*k[f#c#g#]
*A:
{8aa
16ee
16aa
8ff#
8ee
=1
8bb
16eee
16aa
16bb
16aa
8bb}
=2
{8eee
16eee
16fff#
8eee
16aa
16eee
=3
8bb
16eee
16aa
16bb
16aa
8bb}
=4
{8aa
16ee
16aa
16bb
16eee
16bb
16aa
=5
8bb
4eee
16eee
16bb
=6
4aa
8ff#
8ee}
=7
{8eee
16eee
16fff#
8eee
16aa
16eee
=8
8bb
16eee
16aa
16bb
16aa
8bb}
=9
{8eee
16eee
16fff#
8eee
16aa
16eee
=10
8bb
16eee
16aa
16bb
16aa
8bb}
=11
{8aa
16ee
16aa
16bb
16eee
16bb
16aa
=12
8bb
4eee
16eee
16bb
=13
4aa
8ff#
8ee}
=14
{16aa
16ee
16aa
16eee
8bb
16eee
16aa
16bb
16aa
8bb}
=15
{16aa
16ee
16aa
16eee
8bb
16eee
16aa
16bb
16aa
8bb}
=16
*M2/4
{16aa
16bb
4eee
8aaa}
=17
{8aa
16ee
16aa
16bb
16eee
16bb
16aa
=18
8bb
4eee
16eee
16bb
=19
8.aa
16ff#
8ee
16aa
16ff#
=20
2ee}
==
!!!AGN: Xiaodiao
!!!ONB: ESAC (Essen Associative Code) Database: HUANG
!!!AMT: irregular
!!!AIN: vox
!!!EED: Helmut Schaffrath
!!!EEV: 1.0
*-
